X: 22
T: Banish Misfortune
R: jig
M: 6/8
L: 1/8
K: Dmix
|:e |"D"fed "C"cAG | "D"A2d "C"cAG | "D"F2D DED    | FEF "C"GFG|
    "D"AGA "C"cAG  | "D"AGA "C"cde | "D"fed "C"cAG | "D"Ad^c d2   :|
|:e |"D"f2d d^cd   | f2g agf       | "C"e2c cBc    | e2f gfe   |
    "D"f2g agf     | "C"e2f gfe    | "D"fed "C"cAG | "D"Ad^c d2   :|
|:e |"D"f2g "C"e2f | "D"d2e "C"c2d | "D"ABA "C"GAG | "D"F3 FED     |
    "C"c2c cAG     | AGA cde       | "D"fed cAG    | "C"Ad^c "D"d2:|



